images/svg/quiz.svg

<?xml version="1.0" encoding="UTF-8" standalone="no"?>
<svg width="42px" height="50px" viewBox="0 0 42 50" version="1.1" xmlns="http://www.w3.org/2000/svg" xmlns:xlink="http://www.w3.org/1999/xlink">
    <g id="Page-1" stroke="none" stroke-width="1" fill="none" fill-rule="evenodd">
        <g id="Group-9">
            <path d="M38.1328889,41.1654444 L18.7483333,41.1654444 L9.81011111,49.4363333 C9.38,49.8827778 8.61777778,49.5825556 8.61777778,48.9673333 L8.61777778,41.1654444 L3.451,41.1654444 C1.55322222,41.1654444 0,39.634 0,37.7634444 L0,3.40277778 C0,1.53144444 1.55322222,0 3.451,0 L38.1328889,0 C40.0306667,0 41.5838889,1.53144444 41.5838889,3.40277778 L41.5838889,37.7634444 C41.5838889,39.634 40.0306667,41.1654444 38.1328889,41.1654444 L38.1328889,41.1654444 Z" id="Stroke-1" fill="#CE2359"></path>
            <path d="M19.9286755,33 C17.8951763,33 16.5151026,31.854239 16.5151026,29.9204621 C16.5151026,27.9873826 17.8951763,26.8416216 19.9286755,26.8416216 C21.9628721,26.8416216 23.3422484,27.9873826 23.3422484,29.9204621 C23.3422484,31.854239 21.9628721,33 19.9286755,33 M26.1386585,19.4663515 C24.8673728,20.5758499 23.3785111,21.399431 22.834571,22.0089229 C22.5068122,22.4022334 22.4342868,22.688848 22.4342868,23.3332079 L22.3987215,25.0159354 L17.4593269,25.0159354 L17.4230642,22.688848 C17.3868015,20.469154 18.1859751,19.3589582 19.7110995,18.2850252 L21.925912,16.7096909 C22.7250856,16.1371591 23.5242591,15.4927993 23.5242591,14.4906942 C23.5242591,12.9864906 22.2167108,12.1629095 20.0374635,12.1629095 C17.822651,12.1629095 16.0429905,13.2368425 14.9174529,14.3114729 L13.2472778,10.3009606 C14.0094913,9.47807684 16.3337892,7.5443 21.0186478,7.5443 C25.6665464,7.5443 28.7893205,10.4446166 28.7893205,13.8812023 C28.7893205,16.8526495 27.5549949,18.1776319 26.1386585,19.4663515" id="Fill-3" fill="#FFFFFF"></path>
        </g>
    </g>
</svg>

<svg width="42" height="50" xmlns="http://www.w3.org/2000/svg">
	<g fill="none" fill-rule="evenodd">
		<path d="M38.133 41.165H18.748L9.81 49.436c-.43.447-1.192.147-1.192-.469v-7.802H3.45C1.553 41.165 0 39.634 0 37.763V3.403C0 1.53 1.553 0 3.451 0h34.682c1.898 0 3.45 1.531 3.45 3.403v34.36c0 1.871-1.552 3.402-3.45 3.402z" fill="#CE2359"/>
		<path d="M19.929 33c-2.034 0-3.414-1.146-3.414-3.08 0-1.933 1.38-3.078 3.414-3.078 2.034 0 3.413 1.145 3.413 3.078 0 1.934-1.38 3.08-3.413 3.08m6.21-13.534c-1.272 1.11-2.76 1.933-3.304 2.543-.328.393-.4.68-.4 1.324l-.036 1.683h-4.94l-.036-2.327c-.036-2.22.763-3.33 2.288-4.404l2.215-1.575c.8-.573 1.598-1.217 1.598-2.22 0-1.504-1.307-2.327-3.487-2.327-2.214 0-3.994 1.074-5.12 2.148l-1.67-4.01c.762-.823 3.087-2.757 7.772-2.757 4.648 0 7.77 2.9 7.77 6.337 0 2.972-1.234 4.297-2.65 5.585" fill="#FFF"/>
	</g>
</svg>
